public/external-logos/general-electric-logo.svg

<svg width="57" height="57" viewBox="0 0 57 57" fill="none" xmlns="http://www.w3.org/2000/svg">
<path d="M34.7655 21.228C34.7655 18.052 36.9155 14.9717 38.0886 15.552C39.4258 16.2223 37.0865 19.2136 34.7655 21.228ZM20.145 22.3851C20.145 19.8315 22.6644 14.9797 24.2034 15.4927C26.0228 16.0992 22.6963 20.9932 20.145 22.3851ZM17.5902 40.6479C16.432 40.7004 15.6568 39.9594 15.6568 38.7225C15.6568 35.3994 20.2681 32.2245 23.7508 30.5202C23.1329 35.16 21.5654 40.4689 17.5902 40.6479ZM38.8649 29.8191C36.2349 29.8191 34.2251 31.7536 34.2251 34.0735C34.2251 36.0081 35.3879 37.5551 36.9303 37.5551C37.4764 37.5551 38.0167 37.2439 38.0167 36.553C38.0167 35.5419 36.6829 35.299 36.7833 33.7954C36.8505 32.8036 37.7853 32.1401 38.7133 32.1401C40.5681 32.1401 41.4356 33.9379 41.4356 35.7927C41.3604 38.6575 39.2514 40.6468 36.7798 40.6468C33.5286 40.6468 31.4401 37.5551 31.4401 34.2274C31.4401 29.273 34.6914 27.3396 36.3945 26.8779C36.4105 26.8779 40.8428 27.6656 40.7049 25.7116C40.641 24.8521 39.3631 24.5215 38.4397 24.4861C37.4125 24.4462 36.3751 24.8156 36.3751 24.8156C35.8371 24.542 35.4631 24.0073 35.2317 23.3917C38.4043 20.9909 40.6479 18.6721 40.6479 16.041C40.6479 14.6491 39.7176 13.411 37.9381 13.411C34.7655 13.411 32.3669 17.4341 32.3669 21.0707C32.3669 21.6874 32.3669 22.3087 32.5265 22.8491C30.5133 24.3174 29.0164 25.2328 26.3112 26.8573C26.3112 26.5188 26.3819 25.6444 26.6099 24.5135C27.5367 23.5069 28.8101 21.9987 28.8101 20.837C28.8101 20.2966 28.5034 19.8304 27.8787 19.8304C26.334 19.8304 25.1758 22.1537 24.8657 23.7782C24.1692 24.6332 22.7761 25.7162 21.6133 25.7162C20.6865 25.7162 20.3752 24.8646 20.2966 24.5534C23.2378 23.5468 26.8744 19.5237 26.8744 15.8871C26.8744 15.1153 26.5643 13.411 24.2444 13.411C20.7628 13.411 17.8262 18.5969 17.8262 22.6154C16.5847 22.6154 16.123 21.3021 16.123 20.2955C16.123 19.2877 16.5095 18.2857 16.5095 17.9745C16.5095 17.6644 16.3544 17.2791 15.8882 17.2791C14.7299 17.2791 14.0334 18.826 14.0334 20.6056C14.1132 23.0817 15.7366 24.6332 17.9014 24.7848C18.2115 26.2566 19.5248 27.6496 21.1482 27.6496C22.1559 27.6496 23.3928 27.3396 24.2444 26.5678C24.1692 27.1081 24.0939 27.5744 24.0141 28.0361C20.6078 29.8191 18.1317 31.056 15.8882 33.0669C14.1132 34.6937 13.1066 36.8586 13.1066 38.5583C13.1066 40.8828 14.5749 43.0476 17.5914 43.0476C21.1482 43.0476 23.8591 40.1862 25.1758 36.2384C25.7925 34.3836 26.0399 31.6818 26.1984 29.2023C29.7529 27.1879 31.4401 26.0274 33.2983 24.7096C33.5297 25.096 33.7634 25.405 34.0701 25.6364C32.4467 26.488 28.5787 28.8877 28.5787 34.5341C28.5787 38.5572 31.2839 43.0465 36.6259 43.0465C41.0355 43.0465 44.0519 39.4087 44.0519 35.926C44.0508 32.7568 42.2712 29.8191 38.8649 29.8191ZM52.1676 36.4653C52.1562 36.4892 52.1128 36.5211 52.0251 36.4926C51.9567 36.4687 51.9418 36.4368 51.9418 36.3923C51.9453 36.349 52.8766 33.5947 52.8687 30.4392C52.8607 27.0283 51.4767 24.9387 49.7017 24.9387C48.6153 24.9387 47.8424 25.7151 47.8424 26.8779C47.8424 28.9663 50.3937 29.1225 50.3937 33.6859C50.3937 35.5407 50.0073 37.3203 49.3917 39.2537C46.5257 48.9232 37.3966 53.4125 28.5034 53.4125C24.4006 53.4125 21.4867 52.5689 20.6203 52.1802C20.585 52.1596 20.5519 52.0924 20.5804 52.024C20.5998 51.9727 20.6602 51.9328 20.6956 51.9487C21.0467 52.0844 23.549 52.8721 26.6452 52.8721C30.0481 52.8721 32.0614 51.4802 32.0614 49.7759C32.0614 48.694 31.2098 47.8425 30.1279 47.8425C28.0383 47.8425 27.8799 50.4724 23.394 50.4724C21.4605 50.4724 19.7574 50.086 17.7475 49.4647C8.15101 46.5258 3.58303 37.4764 3.58645 28.5024C3.58987 24.1293 4.81651 20.6466 4.83589 20.6147C4.85185 20.5919 4.90657 20.5668 4.97383 20.5919C5.04223 20.6147 5.05705 20.6706 5.05363 20.6911C4.94305 21.0536 4.13023 23.5491 4.13023 26.6453C4.13023 30.0516 5.52217 32.0614 7.30171 32.0614C8.30491 32.0614 9.15649 31.2897 9.15649 30.2067C9.15649 28.1148 6.60175 27.8833 6.60175 23.3952C6.60175 21.4606 6.99163 19.7574 7.60837 17.7476C10.5496 8.15335 19.6035 3.65719 28.5012 3.58765C32.6359 3.55573 36.2532 4.79377 36.3922 4.90435C36.4162 4.92487 36.4401 4.97731 36.4162 5.04001C36.3831 5.11525 36.3352 5.12323 36.3124 5.11867C36.2691 5.11525 33.9162 4.13143 30.3548 4.13143C27.0283 4.12801 24.9387 5.52109 24.9387 7.30291C24.9387 8.30611 25.715 9.15769 26.8721 9.15769C28.9617 9.15769 29.1168 6.60637 33.6061 6.60637C35.535 6.60637 37.2393 6.98827 39.2491 7.60957C48.9231 10.5496 53.3247 19.6788 53.4079 28.5012C53.4535 33.019 52.1801 36.4368 52.1676 36.4653ZM28.5023 1.88677C13.802 1.88677 1.88785 13.7975 1.88785 28.5012C1.88785 43.2015 13.802 55.1122 28.5023 55.1122C43.1992 55.1122 55.1133 43.2015 55.1133 28.5012C55.1133 13.8773 43.1992 1.88677 28.5023 1.88677ZM28.5023 56.4301C13.1054 56.4301 0.570007 43.9744 0.570007 28.5024C0.570007 13.101 13.1054 0.570068 28.5023 0.570068C43.8946 0.570068 56.43 13.101 56.43 28.5024C56.43 43.9744 43.8946 56.4301 28.5023 56.4301Z" fill="#3B73B9"/>
</svg>

<svg width="57" height="57" fill="none" xmlns="http://www.w3.org/2000/svg"><path d="M34.766 21.228c0-3.176 2.15-6.256 3.323-5.676 1.337.67-1.002 3.662-3.323 5.676Zm-14.621 1.157c0-2.554 2.52-7.405 4.058-6.892 1.82.606-1.507 5.5-4.058 6.892ZM17.59 40.648c-1.158.052-1.933-.689-1.933-1.926 0-3.323 4.611-6.498 8.094-8.202-.618 4.64-2.186 9.949-6.16 10.128Zm21.275-10.829c-2.63 0-4.64 1.935-4.64 4.255 0 1.934 1.163 3.481 2.705 3.481.546 0 1.087-.311 1.087-1.002 0-1.011-1.334-1.254-1.234-2.758.067-.991 1.002-1.655 1.93-1.655 1.855 0 2.723 1.798 2.723 3.653-.076 2.864-2.185 4.854-4.656 4.854-3.251 0-5.34-3.092-5.34-6.42 0-4.954 3.251-6.887 4.954-7.35.017 0 4.449.789 4.31-1.165-.063-.86-1.34-1.19-2.264-1.226-1.027-.04-2.065.33-2.065.33-.538-.274-.912-.809-1.143-1.424 3.172-2.401 5.416-4.72 5.416-7.351 0-1.392-.93-2.63-2.71-2.63-3.172 0-5.571 4.023-5.571 7.66 0 .616 0 1.238.16 1.778-2.014 1.468-3.51 2.384-6.216 4.008 0-.338.07-1.213.299-2.343.927-1.007 2.2-2.515 2.2-3.677 0-.54-.307-1.007-.931-1.007-1.545 0-2.703 2.324-3.013 3.948-.697.855-2.09 1.938-3.253 1.938-.927 0-1.238-.851-1.316-1.163 2.94-1.006 6.577-5.03 6.577-8.666 0-.772-.31-2.476-2.63-2.476-3.481 0-6.418 5.186-6.418 9.204-1.241 0-1.703-1.313-1.703-2.32s.386-2.01.386-2.32c0-.31-.155-.696-.62-.696-1.16 0-1.856 1.547-1.856 3.327.08 2.476 1.704 4.027 3.868 4.179.31 1.472 1.624 2.865 3.247 2.865 1.008 0 2.245-.31 3.096-1.082-.075.54-.15 1.006-.23 1.468-3.406 1.783-5.882 3.02-8.126 5.03-1.775 1.628-2.781 3.793-2.781 5.492 0 2.325 1.468 4.49 4.484 4.49 3.557 0 6.268-2.862 7.585-6.81.617-1.854.864-4.556 1.022-7.036 3.555-2.014 5.242-3.175 7.1-4.492.232.386.465.695.772.926-1.623.852-5.491 3.252-5.491 8.898 0 4.023 2.705 8.513 8.047 8.513 4.41 0 7.426-3.638 7.426-7.121-.001-3.17-1.78-6.107-5.187-6.107Zm13.303 6.646c-.012.024-.055.056-.143.028-.068-.024-.083-.056-.083-.1.003-.044.935-2.798.927-5.954-.008-3.41-1.392-5.5-3.167-5.5-1.087 0-1.86.776-1.86 1.939 0 2.088 2.552 2.244 2.552 6.808 0 1.855-.387 3.634-1.002 5.568-2.866 9.67-11.995 14.159-20.889 14.159-4.102 0-7.016-.844-7.883-1.233-.035-.02-.068-.088-.04-.156.02-.051.08-.091.116-.075.35.135 2.853.923 5.95.923 3.402 0 5.415-1.392 5.415-3.096a1.916 1.916 0 0 0-1.933-1.934c-2.09 0-2.248 2.63-6.734 2.63-1.933 0-3.637-.386-5.646-1.007C8.15 46.525 3.582 37.476 3.585 28.502c.004-4.373 1.23-7.855 1.25-7.887.016-.023.07-.048.138-.023.068.023.083.079.08.1-.11.362-.924 2.857-.924 5.953 0 3.407 1.392 5.416 3.172 5.416 1.003 0 1.854-.771 1.854-1.854 0-2.092-2.554-2.324-2.554-6.812 0-1.934.39-3.638 1.006-5.647 2.942-9.595 11.995-14.09 20.893-14.16 4.135-.032 7.752 1.206 7.891 1.316.024.02.048.073.024.136-.033.075-.08.083-.104.079-.043-.004-2.396-.988-5.957-.988-3.327-.003-5.416 1.39-5.416 3.172 0 1.003.776 1.855 1.933 1.855 2.09 0 2.245-2.552 6.734-2.552 1.929 0 3.633.382 5.643 1.004 9.674 2.94 14.076 12.069 14.159 20.891.045 4.518-1.228 7.936-1.24 7.964ZM28.502 1.887c-14.7 0-26.614 11.91-26.614 26.614 0 14.7 11.914 26.611 26.614 26.611 14.697 0 26.611-11.91 26.611-26.61 0-14.625-11.914-26.615-26.61-26.615Zm0 54.543C13.105 56.43.57 43.974.57 28.502.57 13.101 13.105.57 28.502.57 43.895.57 56.43 13.101 56.43 28.502c0 15.472-12.535 27.928-27.928 27.928Z" fill="#3B73B9"/></svg>
